epam-assets/icon-sources/18/table-group_by_2.svg

<svg width="18" height="18" viewBox="0 0 18 18" fill="none" xmlns="http://www.w3.org/2000/svg">
<g id="18/table-group_by_2">
<g id="icon">
<path d="M16.4994 1.50004V4.50004H8.99936V1.50004H16.4994Z" fill="#6C6F80"/>
<path d="M8.99936 10.5V7.50004H16.4994V10.5H8.99936Z" fill="#6C6F80"/>
<path d="M8.99936 13.5V16.5H16.4994V13.5H8.99936Z" fill="#6C6F80"/>
<path d="M3.74936 15H5.24936V13.5H3.74936V13.75V15Z" fill="#6C6F80"/>
<path d="M3.74936 16.5V15H6.74936V16.5H3.74936Z" fill="#6C6F80"/>
<path d="M5.24936 3V4.5H3.74936V1.5L6.74936 1.5V3H5.24936Z" fill="#6C6F80"/>
<path d="M3.74854 6H5.24854V8.25H7.49854V9.75H5.24854V12H3.74854L3.74853 9.75H1.49854L1.49854 8.25H3.74853L3.74854 6Z" fill="#6C6F80"/>
</g>
</g>
</svg>

<svg xmlns="http://www.w3.org/2000/svg" width="18" height="18" fill="none" viewBox="0 0 18 18">
  <path fill="#6C6F80" d="M16.5 1.5v3H9v-3h7.5Zm-7.5 9v-3h7.5v3H9Zm0 3v3h7.5v-3H9ZM3.75 15h1.5v-1.5h-1.5V15Zm0 1.5V15h3v1.5h-3ZM5.25 3v1.5h-1.5v-3h3V3h-1.5ZM3.749 6h1.5v2.25h2.25v1.5h-2.25V12h-1.5V9.75h-2.25v-1.5h2.25V6Z"/>
</svg>
